assets/svg/ficon/battery-2.svg

<?xml version="1.0" encoding="utf-8"?>
<svg width="2304" height="1792" viewBox="0 0 2304 1792" xmlns="http://www.w3.org/2000/svg"><path d="M256 1280v-768h896v768h-896zm1920-704q53 0 90.5 37.5t37.5 90.5v384q0 53-37.5 90.5t-90.5 37.5v160q0 66-47 113t-113 47h-1856q-66 0-113-47t-47-113v-960q0-66 47-113t113-47h1856q66 0 113 47t47 113v160zm0 512v-384h-128v-288q0-14-9-23t-23-9h-1856q-14 0-23 9t-9 23v960q0 14 9 23t23 9h1856q14 0 23-9t9-23v-288h128z" fill="#60be86"/></svg>

<svg width="2304" height="1792" xmlns="http://www.w3.org/2000/svg"><path d="M256 1280V512h896v768H256zm1920-704q53 0 90.5 37.5T2304 704v384q0 53-37.5 90.5T2176 1216v160q0 66-47 113t-113 47H160q-66 0-113-47T0 1376V416q0-66 47-113t113-47h1856q66 0 113 47t47 113v160zm0 512V704h-128V416q0-14-9-23t-23-9H160q-14 0-23 9t-9 23v960q0 14 9 23t23 9h1856q14 0 23-9t9-23v-288h128z" fill="#60be86"/></svg>
